X: 4898
T: Branch Line, The
R: polka
M: 2/4
K: Dmajor
|:d>B|AD FD|CD EB|AD FA|de/d/ cB|
AD F/E/D|CD EB|BA GE|D2:|
|:de|fg/f/ ec|dc BA|fg/f/ ec|d2 d>e|
fg/f/ ef/e/|d/e/d/c/ BA|F/G/A Bc|d2:|

